public/img/erlenmayer-flask-icon.svg

<svg width="44" height="44" viewBox="0 0 44 44" fill="none" xmlns="http://www.w3.org/2000/svg">
<g id="Frame">
<path id="Vector" d="M14.9601 40.3334C7.29677 40.3334 5.75677 35.6951 8.25011 30.0484L16.0418 12.3567H15.4918C14.9199 12.3582 14.3534 12.2469 13.8245 12.0293C13.2957 11.8117 12.8149 11.492 12.4097 11.0885C12.0045 10.6849 11.6827 10.2055 11.4629 9.67761C11.2431 9.14968 11.1294 8.58361 11.1284 8.01175C11.1284 5.62841 13.0718 3.66675 15.4734 3.66675H28.5084C29.7184 3.66675 30.8001 4.16175 31.5884 4.95008C32.6151 5.97675 33.1284 7.48008 32.7434 9.07508C32.2484 11.0551 30.3418 12.3567 28.3068 12.3567H28.0134L35.7501 30.0667C38.2251 35.7134 36.6118 40.3334 29.0218 40.3334H14.9601Z" stroke="#1E293B" stroke-width="2.75" stroke-linecap="round" stroke-linejoin="round"/>
<path id="Vector_2" opacity="0.4" d="M10.8896 24.0532C10.8896 24.0532 16.4996 23.8332 21.9996 25.6666C27.4996 27.4999 32.688 24.0349 32.688 24.0349" stroke="#1E293B" stroke-width="2.75" stroke-linecap="round" stroke-linejoin="round"/>
</g>
</svg>

<svg width="44" height="44" fill="none" xmlns="http://www.w3.org/2000/svg"><g stroke="#1E293B" stroke-width="2.75" stroke-linecap="round" stroke-linejoin="round"><path d="M14.96 40.333c-7.663 0-9.203-4.638-6.71-10.285l7.792-17.691h-.55a4.352 4.352 0 0 1-4.364-4.345 4.354 4.354 0 0 1 4.345-4.345h13.035c1.21 0 2.292.495 3.08 1.283a4.324 4.324 0 0 1 1.155 4.125c-.495 1.98-2.401 3.282-4.436 3.282h-.294l7.737 17.71c2.475 5.646.862 10.266-6.728 10.266H14.96Z"/><path opacity=".4" d="M10.89 24.053s5.61-.22 11.11 1.614c5.5 1.833 10.688-1.632 10.688-1.632"/></g></svg>
